X:300
T: GESTERN BRUEDER KOENNT IHRS GLAUBEN
N: B0351A
O: Europa, Mitteleuropa, Deutschland
R: Trink - Lied
M: 3/4
L: 1/16
K: G
 | G2G2G2F2G4 | A2B2A4G4 |
B2B2B2A2B4 | c2d2c4B4 |
d2d2d2B2G2F2 | E3EE8 |
c2B2A2e2d2^c2 | d2d2d2c2B2A2 |
G2G2G4g4 | eeeee4
d4 | c2B2A2B2dcBA | G2B2G8

@@@ Tune index: 2103
